Adwaita++-Light/panel/24/jdownloader-indicator.svg

<svg height="24" width="24" xmlns="http://www.w3.org/2000/svg">
  <path d="m12 4a8 8 0 0 0 -7.9999999 8 8 8 0 0 0 7.9999999 8 8 8 0 0 0 8-8 8 8 0 0 0 -8-8zm-1 4.0000001h2v3.9999999h2l-3.017578 4-2.9824219-4h1.9999999z" fill="#444"/>
</svg>

<svg xmlns="http://www.w3.org/2000/svg" width="24" height="24" version="1.1">
 <defs>
  <style id="current-color-scheme" type="text/css">
   .ColorScheme-Text { color:#444444; } .ColorScheme-Highlight { color:#4285f4; }
  </style>
 </defs>
 <path style="fill:currentColor" class="ColorScheme-Text" d="M 12,4 A 8,8 0 0 0 4.0000001,12 8,8 0 0 0 12,20 8,8 0 0 0 20,12 8,8 0 0 0 12,4 Z m -1,4.0000001 2,0 L 13,12 15,12 11.982422,16 9.0000001,12 11,12 11,8.0000001 Z"/>
</svg>
